modules/themify-icons/icons/facebook.svg

<?xml version="1.0" encoding="utf-8"?>
<!-- Generated by IcoMoon.io -->
<!DOCTYPE svg PUBLIC "-//W3C//DTD SVG 1.1//EN" "http://www.w3.org/Graphics/SVG/1.1/DTD/svg11.dtd">
<svg version="1.1" xmlns="http://www.w3.org/2000/svg" xmlns:xlink="http://www.w3.org/1999/xlink" width="17" height="17" viewBox="0 0 17 17">
<g>
</g>
	<path d="M12.461 5.57l-0.309 2.93h-2.342v8.5h-3.518v-8.5h-1.753v-2.93h1.753v-1.764c0-2.383 0.991-3.806 3.808-3.806h2.341v2.93h-1.465c-1.093 0-1.166 0.413-1.166 1.176v1.464h2.651z" fill="#000000" />
</svg>

<svg xmlns="http://www.w3.org/2000/svg" width="17" height="17"><path d="M12.461 5.57l-.309 2.93H9.81V17H6.292V8.5H4.539V5.57h1.753V3.806C6.292 1.423 7.283 0 10.1 0h2.341v2.93h-1.465c-1.093 0-1.166.413-1.166 1.176V5.57h2.651z"/></svg>
